X:1
T:Dorian Quartet
M:4/4
L:1/4
Q:"Lento/Largo"
K:C
G4 F4 | E4 D4 | C4 D4 | E4 F4 |
G4 F4 | E4 D4 | C4 D4 | E4 F4 |
G4 F4 | E4 D4 | C4 D4 | E4 F4 |
G4 F4 | E4 D4 | C4 D4 | E4 F4 ||